public/library/gu-labs-icon-dark.svg

<svg width="64" height="64" viewBox="0 0 64 64" fill="none" xmlns="http://www.w3.org/2000/svg">
<circle cx="32" cy="32" r="32" fill="black"/>
<path d="M44.0456 11.0011C44.3488 11.0011 44.5946 10.772 44.5946 10.4893C44.5946 10.2067 44.3488 9.97754 44.0456 9.97754C43.7424 9.97754 43.4966 10.2067 43.4966 10.4893C43.4966 10.772 43.7424 11.0011 44.0456 11.0011Z" fill="#001A17"/>
<path d="M20.0002 14.173C20.3034 14.173 20.5492 13.9439 20.5492 13.6612C20.5492 13.3786 20.3034 13.1494 20.0002 13.1494C19.697 13.1494 19.4512 13.3786 19.4512 13.6612C19.4512 13.9439 19.697 14.173 20.0002 14.173Z" fill="#001A17"/>
<path d="M16.4354 26.879C16.4354 27.546 15.8827 27.9098 15.3079 27.9098C14.7331 27.9098 14.3105 27.4148 14.3105 26.879C14.3105 26.3431 14.8199 25.8481 15.3947 25.8481C15.9694 25.8481 16.4354 26.2322 16.4354 26.879Z" fill="#001A17"/>
<path d="M13.6701 31.5659C13.7915 32.3906 13.1714 33.3244 12.8462 33.6882C12.4033 34.3148 11.2417 34.5776 10.7864 33.9308C10.331 33.284 11.2634 32.2127 12.0656 31.1617C12.8679 30.1106 13.5183 30.5351 13.6701 31.5659Z" fill="#001A17"/>
<path d="M12.6735 53.3344C13.0551 51.9761 14.8417 52.0206 15.3838 51.9195C15.9258 51.8185 17.0099 51.9195 17.617 52.8291C18.4366 54.057 17.1833 54.5876 16.0559 54.8301C14.9284 55.0727 12.1965 55.0322 12.6735 53.3344Z" fill="#001A17"/>
<path d="M52.2529 31.3666C50.9173 32.0458 50.5545 31.2049 50.54 30.6996C50.54 29.8103 51.7418 29.8011 52.5347 29.5273C53.4888 29.1979 53.9224 30.5177 52.2529 31.3666Z" fill="#001A17"/>
<path fill-rule="evenodd" clip-rule="evenodd" d="M49.8028 13.4984C49.0994 14.7124 47.902 14.7851 43.947 13.772C41.976 13.5082 42.0157 14.8563 45.6181 16.9952C48.5322 18.7254 50.3448 21.2061 50.8868 22.2302C52.568 25.8333 51.1834 27.8949 50.6322 28.7155C50.565 28.8156 50.5102 28.8973 50.4748 28.961C50.3827 29.127 50.2037 29.3529 49.9954 29.6158C49.468 30.2816 48.7526 31.1845 48.7836 31.9524C48.8238 32.945 49.683 32.8965 50.7575 32.8357C50.8427 32.8309 50.9293 32.826 51.0169 32.8216C52.2094 32.761 52.6864 33.529 51.9275 35.045C51.1686 36.5609 48.7836 37.6726 47.3743 37.3492C45.965 37.0258 46.5287 35.995 46.7456 35.6312C46.8003 35.5392 46.9008 35.4098 47.0134 35.2648C47.3464 34.8362 47.7851 34.2714 47.4611 34.1354C47.1456 34.0031 47.0482 34.106 46.2345 34.9651C45.9293 35.2873 45.5234 35.7157 44.9677 36.2779C43.7181 37.542 43.1042 39.1175 42.5214 40.6133C42.1537 41.5572 41.7983 42.4692 41.3034 43.2513C40.0451 45.2394 35.703 44.607 34.6327 44.4512L34.582 44.4438C33.6064 44.3023 32.3271 44.1406 31.9152 45.2119C31.5032 46.2831 32.3488 46.8693 33.6064 47.2735C34.8639 47.6778 37.1405 49.3757 35.8612 52.0639C34.582 54.7522 29.3133 55.9246 27.2536 56.0054C25.1938 56.0862 23.4159 55.5203 22.4402 53.8022C21.4645 52.0841 23.3291 50.1438 24.1531 49.3959C24.7355 48.8671 25.4589 48.5809 26.3997 48.2086L26.4005 48.2083C26.7902 48.0541 27.2173 47.885 27.6872 47.6778C29.2917 46.9704 29.1616 46.2427 28.9665 45.9598C28.7713 45.6768 28.251 45.2928 26.5598 46.6874C25.2069 47.8031 23.8423 48.5807 23.3291 48.8299C18.4724 51.1139 15.0251 48.264 13.4856 46.4246C11.9462 44.5853 12.098 39.5524 15.2419 35.7322C18.3857 31.9121 17.7786 28.2738 17.1932 26.01C16.9948 25.2425 16.6592 24.5331 16.3371 23.8519C15.7088 22.5237 15.1313 21.3024 15.7189 19.9664C16.5477 18.0818 18.0739 17.5151 18.6984 17.2833C18.7437 17.2664 18.7842 17.2514 18.8194 17.2377C19.3397 17.0356 19.4048 16.9143 19.3831 16.793C19.3658 16.696 19.0723 16.6583 18.9278 16.6516L18.9322 16.6467C17.5392 16.5235 16.6079 15.2446 16.6079 13.842C16.6079 12.2122 18.2637 10.7697 20.0119 10.7697C21.7602 10.7697 22.939 11.9697 22.939 13.5994C22.939 14.4214 22.5454 15.1804 21.9309 15.7308C21.6576 16.3858 22.7509 15.9087 23.8062 15.0952C24.1603 14.8222 24.4053 14.2701 24.7011 13.6036C25.3472 12.1479 26.2355 10.1463 29.0315 9.31441C33.0546 8.11744 35.388 9.99204 37.5535 11.7318L37.6392 11.8006C39.7206 13.472 39.9412 13.4087 40.4607 13.2594C40.4877 13.2517 40.5155 13.2436 40.5445 13.2356C41.0899 13.085 40.5439 12.2502 40.0634 11.5157C40.0282 11.4619 39.9932 11.4083 39.9591 11.3559L39.9503 11.3423C39.0966 10.3819 38.7844 9.41559 39.209 8.68272C39.9706 7.36828 43.1567 6.38268 46.0085 7.81867C49.8028 9.5367 50.5644 12.1839 49.8028 13.4984ZM31.5033 10.9313C30.7155 11.0594 29.1893 11.6574 28.4894 12.4877C28.0125 13.0536 26.3863 15.0749 30.0072 15.1356C33.6281 15.1962 34.3002 13.1749 34.1918 12.7101C34.0834 12.2451 33.6281 10.709 31.5033 10.9313ZM48.0793 12.0324C47.7342 12.9251 45.7911 13.0899 43.7393 12.4006C41.6875 11.7112 40.4163 10.2273 40.7614 9.33466C41.1064 8.442 42.5906 7.93787 44.6424 8.62722C46.6942 9.31658 48.4243 11.1398 48.0793 12.0324ZM19.8817 15.4792C20.8996 15.4792 21.7247 14.71 21.7247 13.7612C21.7247 12.8122 20.8996 12.043 19.8817 12.043C18.8639 12.043 18.0388 12.8122 18.0388 13.7612C18.0388 14.71 18.8639 15.4792 19.8817 15.4792ZM35.6879 14.0441C35.8787 13.1547 36.4612 13.0132 36.7286 13.0537C37.1622 13.0537 37.6826 13.4984 37.6609 14.1654C37.6392 14.8324 37.2056 15.1558 36.8153 15.277C36.425 15.3983 35.4493 15.1558 35.6879 14.0441ZM14.5264 44.0395C14.3703 42.9076 14.5336 42.2069 14.6348 41.9981C14.96 41.4321 15.5671 41.6342 16.1959 42.4225C16.8247 43.2108 17.1933 43.8778 17.3017 44.5448C17.4101 45.2119 17.2583 45.8991 16.326 45.9597C15.3937 46.0203 14.7215 45.4544 14.5264 44.0395ZM37.6609 42.5842C38.0584 42.6381 38.9921 42.5762 39.5472 41.897C40.241 41.048 39.5255 39.9162 38.8968 39.6736C38.268 39.4311 37.1405 39.2289 36.6853 39.8757C36.2299 40.5226 35.8613 41.2098 36.2733 41.897C36.6028 42.4468 37.3357 42.5842 37.6609 42.5842ZM33.4113 16.9547C35.0591 16.2756 36.266 17.2377 36.6636 17.8036C39.634 20.7749 39.8941 25.8685 39.8941 27.445C39.8941 29.0216 40.8048 33.6907 43.103 31.8312C45.2807 30.0692 45.2587 26.5468 45.2505 25.2192C45.2499 25.1457 45.2496 25.0789 45.2496 25.0195C45.2496 23.8876 44.5991 21.5025 41.8455 20.2493C39.0919 18.9962 38.9401 16.7323 39.8941 15.7621C40.8482 14.792 42.4959 15.3781 44.5991 18.3696C46.7022 21.3611 47.1575 27.1216 47.1142 28.4556C47.0708 29.7897 45.9 31.5684 44.9026 32.5992C43.9967 33.5356 43.4307 34.3719 42.717 35.4262C42.645 35.5326 42.5715 35.6412 42.4959 35.7524C41.6403 37.0118 39.8941 37.4907 38.2897 36.763C36.7992 36.087 36.6684 33.0437 36.5541 30.3819C36.5345 29.9262 36.5154 29.4816 36.4901 29.062C36.3166 26.1918 34.1268 22.8568 33.1945 21.5025C32.2621 20.1483 31.3515 17.8036 33.4113 16.9547ZM24.3916 24.009C25.6925 22.4729 26.4948 21.7741 28.7713 21.5027C30.636 21.2803 30.8312 19.4005 30.5926 18.6122C30.1863 17.2694 27.3837 16.5506 24.7603 17.9452C22.1367 19.3399 20.0986 20.9974 19.9252 24.1707C19.8793 25.0111 19.8426 25.8469 19.8074 26.6483C19.7099 28.8733 19.624 30.8336 19.3832 31.8919C19.1469 32.9301 18.8266 33.8919 18.5204 34.8115C17.8429 36.8459 17.2344 38.6735 17.757 40.6642C18.5159 43.5545 20.0986 45.5556 22.8956 45.2726C24.9194 45.0679 26.2167 44.0906 27.1571 43.3822C27.5163 43.1115 27.8235 42.8801 28.0992 42.746C29.0966 42.2609 30.1373 41.8365 31.178 41.6748C32.2188 41.5131 35.382 39.4827 35.1241 37.127C34.9894 35.8958 34.9812 34.5987 34.9731 33.3147C34.9616 31.5 34.9503 29.7116 34.5821 28.1728C33.9533 25.5451 32.4356 23.3824 29.5953 23.2207C26.755 23.059 24.6084 27.2835 25.2372 28.6377C25.866 29.9919 27.6656 29.9919 29.0099 27.7686C29.8782 26.3323 31.128 27.1622 31.9803 28.6377C32.2838 29.1632 33.1511 32.4579 32.2621 35.2876C31.3732 38.1174 29.5519 40.8056 26.9934 40.6642C24.7651 40.5409 23.3726 39.6333 22.4186 36.1971C21.4646 32.761 22.4035 26.3567 24.3916 24.009Z" fill="#001A17"/>
<path d="M14.6348 41.9981C14.96 41.4321 15.5672 41.6343 16.1959 42.4226C16.8247 43.2109 17.1933 43.8779 17.3017 44.5449C17.41 45.2119 17.2583 45.899 16.326 45.9596C15.3938 46.0203 14.7216 45.4544 14.5265 44.0396C14.3704 42.9078 14.5336 42.207 14.6348 41.9981Z" fill="#44FFD2"/>
<path d="M24.7604 17.9452C27.3838 16.5506 30.1863 17.2694 30.5926 18.6122C30.8312 19.4005 30.636 21.2803 28.7713 21.5026C26.4949 21.7741 25.6925 22.473 24.3916 24.0091C22.4036 26.3568 21.4647 32.761 22.4187 36.1971C23.3727 39.6332 24.7653 40.541 26.9936 40.6642C29.552 40.8056 31.3733 38.1173 32.2623 35.2876C33.1512 32.4578 32.2839 29.1633 31.9804 28.6377C31.1281 27.1622 29.8784 26.3324 29.01 27.7686C27.6658 29.9919 25.8661 29.9919 25.2372 28.6377C24.6085 27.2834 26.755 23.0589 29.5954 23.2206C32.4357 23.3824 33.9534 25.5451 34.5822 28.1727C34.9504 29.7116 34.9617 31.5001 34.9732 33.3148C34.9813 34.5987 34.9894 35.8958 35.1242 37.127C35.382 39.4827 32.2189 41.513 31.1781 41.6747C30.1374 41.8364 29.0967 42.261 28.0993 42.7461C27.8236 42.8802 27.5164 43.1116 27.1571 43.3822C26.2167 44.0906 24.9195 45.0678 22.8957 45.2726C20.0988 45.5555 18.516 43.5545 17.7571 40.6642C17.2345 38.6736 17.8431 36.8459 18.5205 34.8116C18.8267 33.892 19.147 32.9302 19.3832 31.892C19.624 30.8337 19.7101 28.8733 19.8076 26.6483C19.8427 25.8469 19.8793 25.0111 19.9252 24.1707C20.0986 20.9974 22.1368 19.3399 24.7604 17.9452Z" fill="#44FFD2"/>
<path d="M36.6853 39.8757C37.1406 39.2289 38.268 39.4311 38.8968 39.6737C39.5255 39.9162 40.241 41.0481 39.5472 41.897C38.9922 42.5761 38.0585 42.6381 37.661 42.5843C37.3358 42.5843 36.6029 42.4468 36.2734 41.897C35.8614 41.2098 36.23 40.5226 36.6853 39.8757Z" fill="#44FFD2"/>
<path d="M39.8942 15.7621C40.8482 14.792 42.496 15.3782 44.5991 18.3696C46.7022 21.3611 47.1576 27.1216 47.1142 28.4556C47.0709 29.7897 45.9002 31.5684 44.9028 32.5993C43.9968 33.5356 43.4307 34.3719 42.7171 35.4263C42.645 35.5326 42.5715 35.6412 42.496 35.7523C41.6404 37.0118 39.8942 37.4907 38.2897 36.7631C36.7992 36.087 36.6685 33.0437 36.5542 30.3819C36.5346 29.9262 36.5155 29.4816 36.4902 29.062C36.3167 26.1919 34.1269 22.8567 33.1946 21.5025C32.2622 20.1482 31.3516 17.8036 33.4113 16.9547C35.0591 16.2756 36.266 17.2377 36.6636 17.8036C39.634 20.7748 39.8942 25.8685 39.8942 27.4451C39.8942 29.0217 40.8049 33.6906 43.1031 31.8312C45.2808 30.0692 45.2587 26.5468 45.2505 25.2191C45.2499 25.1456 45.2496 25.0788 45.2496 25.0195C45.2496 23.8875 44.5991 21.5026 41.8455 20.2494C39.092 18.9963 38.9402 16.7323 39.8942 15.7621Z" fill="#44FFD2"/>
<path d="M22.1994 16.017C22.1049 16.0399 22.0286 16.0447 21.9752 16.0277L22.1994 16.017Z" fill="#44FFD2"/>
<path d="M19.8819 12.043C20.8997 12.0431 21.7247 12.8123 21.7247 13.7612C21.7247 14.71 20.8997 15.4792 19.8819 15.4792C18.864 15.4792 18.0388 14.71 18.0388 13.7612C18.0388 12.8123 18.864 12.043 19.8819 12.043Z" fill="#44FFD2"/>
<path d="M35.6879 14.0441C35.8787 13.1547 36.4613 13.0133 36.7287 13.0538C37.1623 13.0538 37.6827 13.4984 37.661 14.1653C37.6393 14.8324 37.2056 15.1558 36.8154 15.2771C36.4251 15.3984 35.4494 15.1557 35.6879 14.0441Z" fill="#44FFD2"/>
<path d="M31.5034 10.9313C33.6281 10.709 34.0834 12.2451 34.1918 12.71C34.3002 13.1749 33.6281 15.1961 30.0073 15.1355C26.3866 15.0749 28.0125 13.0538 28.4895 12.4878C29.1893 11.6575 30.7156 11.0593 31.5034 10.9313Z" fill="#44FFD2"/>
<path d="M40.7614 9.33467C41.1065 8.44202 42.5907 7.93788 44.6425 8.62723C46.6943 9.31659 48.4244 11.1399 48.0794 12.0325C47.7342 12.9251 45.7911 13.0899 43.7394 12.4005C41.6876 11.7111 40.4163 10.2274 40.7614 9.33467Z" fill="#44FFD2"/>
</svg>

<svg xmlns="http://www.w3.org/2000/svg" width="64" height="64" fill="none" viewBox="0 0 64 64"><circle cx="32" cy="32" r="32" fill="#000"/><path fill="#001a17" d="M44.046 11.001c.303 0 .549-.229.549-.512 0-.282-.246-.511-.55-.511-.303 0-.548.229-.548.511s.245.512.549.512M20 14.173c.303 0 .55-.23.55-.512s-.247-.512-.55-.512-.549.23-.549.512.246.512.55.512M16.435 26.879c0 .667-.552 1.03-1.127 1.03s-.998-.494-.998-1.03.51-1.03 1.085-1.03c.574 0 1.04.383 1.04 1.03M13.67 31.566c.121.825-.499 1.758-.824 2.122-.443.627-1.604.89-2.06.243s.477-1.718 1.28-2.77c.802-1.05 1.452-.626 1.604.405M12.674 53.334c.381-1.358 2.168-1.313 2.71-1.415.542-.1 1.626 0 2.233.91.82 1.228-.434 1.759-1.561 2.001-1.128.243-3.86.202-3.383-1.496M52.253 31.367c-1.336.679-1.699-.162-1.713-.667 0-.89 1.202-.899 1.995-1.173.954-.33 1.387.99-.282 1.84"/><path fill="#001a17" fill-rule="evenodd" d="M49.803 13.498c-.704 1.214-1.901 1.287-5.856.274-1.971-.264-1.931 1.084 1.671 3.223 2.914 1.73 4.727 4.211 5.269 5.235 1.681 3.603.296 5.665-.255 6.485a4 4 0 0 0-.157.246c-.092.166-.271.392-.48.655-.527.666-1.242 1.569-1.211 2.336.04.993.899.945 1.974.884l.259-.014c1.192-.061 1.67.707.91 2.223-.758 1.516-3.143 2.628-4.553 2.304-1.409-.323-.845-1.354-.628-1.718.054-.092.155-.221.267-.366.333-.429.772-.994.448-1.13-.315-.132-.413-.029-1.227.83-.305.322-.71.75-1.266 1.313-1.25 1.264-1.864 2.84-2.447 4.335-.367.944-.723 1.856-1.218 2.638-1.258 1.988-5.6 1.356-6.67 1.2l-.051-.007c-.976-.142-2.255-.303-2.667.768s.434 1.657 1.691 2.061c1.258.405 3.535 2.103 2.255 4.79-1.279 2.69-6.548 3.862-8.607 3.942-2.06.081-3.838-.485-4.814-2.203s.89-3.658 1.713-4.406c.582-.529 1.306-.815 2.247-1.187.39-.155.817-.324 1.287-.531 1.605-.708 1.475-1.435 1.28-1.718s-.716-.667-2.407.727c-1.353 1.116-2.718 1.894-3.23 2.143-4.858 2.284-8.305-.566-9.844-2.405-1.54-1.84-1.388-6.873 1.756-10.693s2.537-7.458 1.951-9.722c-.198-.768-.534-1.477-.856-2.158-.628-1.328-1.206-2.55-.618-3.886.829-1.884 2.355-2.45 2.98-2.683l.12-.045c.52-.202.586-.324.564-.445-.017-.097-.31-.135-.455-.141l.004-.005c-1.393-.123-2.324-1.402-2.324-2.805 0-1.63 1.656-3.072 3.404-3.072s2.927 1.2 2.927 2.83c0 .821-.394 1.58-1.008 2.13-.273.656.82.179 1.875-.635.354-.273.6-.825.895-1.491.646-1.456 1.534-3.458 4.33-4.29 4.024-1.197 6.357.678 8.523 2.418l.085.069c2.082 1.671 2.302 1.608 2.822 1.458l.084-.023c.545-.151-.001-.986-.482-1.72l-.104-.16-.009-.014c-.853-.96-1.166-1.926-.741-2.66.762-1.314 3.948-2.3 6.8-.863 3.794 1.718 4.555 4.365 3.794 5.68m-18.3-2.567c-.788.128-2.314.726-3.014 1.557-.477.566-2.103 2.587 1.518 2.648s4.293-1.961 4.185-2.426-.564-2.001-2.689-1.779m16.576 1.101c-.345.893-2.288 1.058-4.34.369s-3.323-2.174-2.978-3.066c.345-.893 1.83-1.397 3.881-.708 2.052.69 3.782 2.513 3.437 3.405M19.882 15.48c1.018 0 1.843-.769 1.843-1.718s-.825-1.718-1.843-1.718-1.843.77-1.843 1.718c0 .949.825 1.718 1.843 1.718m15.806-1.435c.19-.89.773-1.03 1.04-.99.434 0 .955.444.933 1.111s-.455.99-.846 1.112c-.39.121-1.366-.121-1.127-1.233M14.526 44.04c-.156-1.131.008-1.832.109-2.04.325-.567.932-.365 1.56.423.63.789.998 1.456 1.107 2.123s-.044 1.354-.976 1.415-1.604-.506-1.8-1.92m23.135-1.455c.397.054 1.331-.008 1.886-.687.694-.849-.021-1.98-.65-2.223s-1.756-.445-2.212.202c-.455.647-.824 1.334-.412 2.021.33.55 1.063.687 1.388.687m-4.25-25.63a2.684 2.684 0 0 1 3.253.85c2.97 2.97 3.23 8.065 3.23 9.641s.91 6.246 3.209 4.386c2.178-1.762 2.156-5.284 2.148-6.612l-.001-.2c0-1.131-.65-3.516-3.404-4.77s-2.906-3.517-1.952-4.487 2.602-.384 4.705 2.608 2.559 8.752 2.515 10.086c-.043 1.334-1.214 3.112-2.211 4.143-.906.937-1.472 1.773-2.186 2.827l-.221.326c-.856 1.26-2.602 1.739-4.206 1.011-1.49-.676-1.622-3.72-1.736-6.381-.02-.456-.039-.9-.064-1.32-.173-2.87-2.363-6.205-3.296-7.56s-1.843-3.698.217-4.547m-9.02 7.055c1.302-1.536 2.104-2.235 4.38-2.506 1.865-.223 2.06-2.102 1.822-2.89-.407-1.344-3.21-2.062-5.833-.668-2.623 1.395-4.661 3.052-4.835 6.226-.046.84-.082 1.676-.118 2.477-.097 2.225-.183 4.186-.424 5.244-.236 1.038-.556 2-.863 2.92-.677 2.034-1.286 3.861-.763 5.852.759 2.89 2.342 4.892 5.139 4.609 2.023-.205 3.32-1.182 4.261-1.89.36-.272.666-.503.942-.637.998-.485 2.038-.91 3.079-1.071 1.04-.162 4.204-2.192 3.946-4.548-.135-1.231-.143-2.528-.15-3.812-.012-1.815-.024-3.603-.392-5.142-.629-2.628-2.146-4.79-4.987-4.952-2.84-.162-4.987 4.063-4.358 5.417s2.429 1.354 3.773-.87c.868-1.436 2.118-.606 2.97.87.304.525 1.171 3.82.282 6.65s-2.71 5.518-5.269 5.376c-2.228-.123-3.62-1.03-4.574-4.467s-.015-9.84 1.973-12.188" clip-rule="evenodd"/><path fill="#44ffd2" d="M14.635 41.998c.325-.566.932-.364 1.56.425.63.788.998 1.455 1.107 2.122s-.044 1.354-.976 1.415-1.604-.506-1.8-1.92c-.156-1.132.008-1.833.109-2.042M24.76 17.945c2.624-1.394 5.426-.676 5.833.667.238.789.043 2.668-1.822 2.89-2.276.272-3.079.971-4.38 2.507-1.987 2.348-2.926 8.752-1.972 12.188s2.346 4.344 4.575 4.467c2.558.142 4.38-2.547 5.268-5.376.89-2.83.022-6.125-.282-6.65-.852-1.476-2.102-2.306-2.97-.87-1.344 2.224-3.144 2.224-3.773.87-.628-1.355 1.518-5.58 4.358-5.417 2.84.161 4.358 2.324 4.987 4.952.368 1.539.38 3.327.391 5.142.008 1.284.016 2.58.151 3.812.258 2.356-2.905 4.386-3.946 4.548-1.04.161-2.081.586-3.079 1.071-.275.134-.583.366-.942.636-.94.709-2.238 1.686-4.261 1.89-2.797.284-4.38-1.718-5.139-4.608-.523-1.99.086-3.818.763-5.852.307-.92.627-1.882.863-2.92.241-1.058.327-3.019.425-5.244.035-.801.071-1.637.117-2.477.174-3.174 2.212-4.831 4.835-6.226M36.685 39.876c.456-.647 1.583-.445 2.212-.202.629.242 1.344 1.374.65 2.223-.555.68-1.488.741-1.886.687-.325 0-1.058-.137-1.388-.687-.412-.687-.043-1.374.412-2.021M39.894 15.762c.954-.97 2.602-.384 4.705 2.608s2.559 8.752 2.515 10.086c-.043 1.334-1.214 3.112-2.211 4.143-.906.937-1.472 1.773-2.186 2.827l-.221.326c-.856 1.26-2.602 1.739-4.206 1.011-1.49-.676-1.621-3.72-1.736-6.381-.02-.456-.038-.9-.064-1.32-.173-2.87-2.363-6.205-3.295-7.56-.933-1.354-1.843-3.698.216-4.547a2.684 2.684 0 0 1 3.253.849c2.97 2.97 3.23 8.065 3.23 9.641s.91 6.246 3.21 4.386c2.177-1.762 2.155-5.284 2.147-6.612l-.001-.2c0-1.131-.65-3.516-3.404-4.77s-2.906-3.517-1.952-4.487M22.2 16.017a.44.44 0 0 1-.225.01zM19.882 12.043c1.018 0 1.843.77 1.843 1.718 0 .949-.825 1.718-1.843 1.718s-1.843-.769-1.843-1.718.825-1.718 1.843-1.718M35.688 14.044c.19-.89.773-1.03 1.04-.99.434 0 .955.444.933 1.111s-.455.99-.846 1.112c-.39.121-1.366-.121-1.127-1.233M31.503 10.931c2.125-.222 2.58 1.314 2.689 1.779s-.564 2.486-4.185 2.425c-3.62-.06-1.995-2.081-1.518-2.647.7-.83 2.227-1.429 3.014-1.557M40.761 9.335c.345-.893 1.83-1.397 3.881-.708 2.052.69 3.782 2.513 3.437 3.406-.345.892-2.288 1.057-4.34.367-2.051-.689-3.323-2.173-2.978-3.065"/></svg>
